public/images/circle-arrow-right.svg

<svg fill="none" height="32" viewBox="0 0 32 32" width="32" xmlns="http://www.w3.org/2000/svg"><path d="m9.33333 16h13.33337m0 0-4-4m4 4-4 4m9.3333-4c0 6.6274-5.3726 12-12 12-6.62742 0-12-5.3726-12-12 0-6.62742 5.37258-12 12-12 6.6274 0 12 5.37258 12 12z" stroke="#262830" stroke-linecap="round" stroke-linejoin="round" stroke-width="2"/></svg>

<svg width="32" height="32" viewBox="0 0 32 32" fill="none" xmlns="http://www.w3.org/2000/svg">
<path d="M9.33333 16H22.6667M22.6667 16L18.6667 12M22.6667 16L18.6667 20M28 16C28 22.6274 22.6274 28 16 28C9.37258 28 4 22.6274 4 16C4 9.37258 9.37258 4 16 4C22.6274 4 28 9.37258 28 16Z" stroke="#262830" stroke-width="2" stroke-linecap="round" stroke-linejoin="round"/>
</svg>
